images_sukapura_svg/cmd/32/alignright.svg

<svg viewBox="0 0 32 32" xmlns="http://www.w3.org/2000/svg"><path d="m26.5 5c.277 0 .5.223.5.5s-.223.5-.5.5h-21c-.277 0-.5-.223-.5-.5s.223-.5.5-.5zm0 3c.277 0 .5.223.5.5s-.223.5-.5.5h-12c-.277 0-.5-.223-.5-.5s.223-.5.5-.5zm0 6c.277 0 .5.223.5.5s-.223.5-.5.5h-21c-.277 0-.5-.223-.5-.5s.223-.5.5-.5zm0 3c.277 0 .5.223.5.5s-.223.5-.5.5h-12c-.277 0-.5-.223-.5-.5s.223-.5.5-.5zm0 6c.277 0 .5.223.5.5s-.223.5-.5.5h-21c-.277 0-.5-.223-.5-.5s.223-.5.5-.5zm0 3c.277 0 .5.223.5.5s-.223.5-.5.5h-12c-.277 0-.5-.223-.5-.5s.223-.5.5-.5z" fill="#69696e"/><path d="m26.5 6c.277 0 .5.223.5.5s-.223.5-.5.5h-21c-.277 0-.5-.223-.5-.5s.223-.5.5-.5zm0 3c.277 0 .5.223.5.5s-.223.5-.5.5h-12c-.277 0-.5-.223-.5-.5s.223-.5.5-.5zm0 6c.277 0 .5.223.5.5s-.223.5-.5.5h-21c-.277 0-.5-.223-.5-.5s.223-.5.5-.5zm0 3c.277 0 .5.223.5.5s-.223.5-.5.5h-12c-.277 0-.5-.223-.5-.5s.223-.5.5-.5zm0 6c.277 0 .5.223.5.5s-.223.5-.5.5h-21c-.277 0-.5-.223-.5-.5s.223-.5.5-.5zm0 3c.277 0 .5.223.5.5s-.223.5-.5.5h-12c-.277 0-.5-.223-.5-.5s.223-.5.5-.5z" fill="#e9e9e9" fill-opacity=".992157"/></svg>

<?xml version="1.0" encoding="UTF-8" standalone="no"?>
<svg
   xmlns:dc="http://purl.org/dc/elements/1.1/"
   xmlns:cc="http://creativecommons.org/ns#"
   xmlns:rdf="http://www.w3.org/1999/02/22-rdf-syntax-ns#"
   xmlns:svg="http://www.w3.org/2000/svg"
   xmlns="http://www.w3.org/2000/svg"
   xmlns:sodipodi="http://sodipodi.sourceforge.net/DTD/sodipodi-0.dtd"
   xmlns:inkscape="http://www.inkscape.org/namespaces/inkscape"
   viewBox="0 0 32 32"
   version="1.1"
   id="svg6"
   sodipodi:docname="alignright.svg"
   inkscape:export-filename="/home/rizmut/Documents/Rizmut/Github/libreoffice-style-sukapura/images_sukapura/cmd/32/alignleft.png"
   inkscape:export-xdpi="96"
   inkscape:export-ydpi="96"
   inkscape:version="0.92.3 (2405546, 2018-03-11)">
  <metadata
     id="metadata12">
    <rdf:RDF>
      <cc:Work
         rdf:about="">
        <dc:format>image/svg+xml</dc:format>
        <dc:type
           rdf:resource="http://purl.org/dc/dcmitype/StillImage" />
        <dc:title></dc:title>
      </cc:Work>
    </rdf:RDF>
  </metadata>
  <defs
     id="defs10" />
  <sodipodi:namedview
     pagecolor="#ffffff"
     bordercolor="#666666"
     borderopacity="1"
     objecttolerance="10"
     gridtolerance="10"
     guidetolerance="10"
     inkscape:pageopacity="0"
     inkscape:pageshadow="2"
     inkscape:window-width="1366"
     inkscape:window-height="692"
     id="namedview8"
     showgrid="false"
     inkscape:zoom="10.429825"
     inkscape:cx="-2.158444"
     inkscape:cy="17.973258"
     inkscape:window-x="0"
     inkscape:window-y="0"
     inkscape:window-maximized="1"
     inkscape:current-layer="svg6" />
  <path
     d="M 26.5,5 C 26.777,5 27,5.223 27,5.5 27,5.777 26.777,6 26.5,6 H 5.5 C 5.223,6 5,5.777 5,5.5 5,5.223 5.223,5 5.5,5 Z m 0,3 C 26.777,8 27,8.223 27,8.5 27,8.777 26.777,9 26.5,9 h -12 C 14.223,9 14,8.777 14,8.5 14,8.223 14.223,8 14.5,8 Z m 0,6 c 0.277,0 0.5,0.223 0.5,0.5 0,0.277 -0.223,0.5 -0.5,0.5 H 5.5 C 5.223,15 5,14.777 5,14.5 5,14.223 5.223,14 5.5,14 Z m 0,3 c 0.277,0 0.5,0.223 0.5,0.5 0,0.277 -0.223,0.5 -0.5,0.5 h -12 C 14.223,18 14,17.777 14,17.5 14,17.223 14.223,17 14.5,17 Z m 0,6 c 0.277,0 0.5,0.223 0.5,0.5 0,0.277 -0.223,0.5 -0.5,0.5 H 5.5 C 5.223,24 5,23.777 5,23.5 5,23.223 5.223,23 5.5,23 Z m 0,3 c 0.277,0 0.5,0.223 0.5,0.5 0,0.277 -0.223,0.5 -0.5,0.5 h -12 C 14.223,27 14,26.777 14,26.5 14,26.223 14.223,26 14.5,26 Z"
     id="path2"
     style="fill:#69696e;fill-opacity:1"
     inkscape:connector-curvature="0" />
  <path
     d="M 26.5,6 C 26.777,6 27,6.223 27,6.5 27,6.777 26.777,7 26.5,7 H 5.5 C 5.223,7 5,6.777 5,6.5 5,6.223 5.223,6 5.5,6 Z m 0,3 C 26.777,9 27,9.223 27,9.5 27,9.777 26.777,10 26.5,10 h -12 C 14.223,10 14,9.777 14,9.5 14,9.223 14.223,9 14.5,9 Z m 0,6 c 0.277,0 0.5,0.223 0.5,0.5 0,0.277 -0.223,0.5 -0.5,0.5 H 5.5 C 5.223,16 5,15.777 5,15.5 5,15.223 5.223,15 5.5,15 Z m 0,3 c 0.277,0 0.5,0.223 0.5,0.5 0,0.277 -0.223,0.5 -0.5,0.5 h -12 C 14.223,19 14,18.777 14,18.5 14,18.223 14.223,18 14.5,18 Z m 0,6 c 0.277,0 0.5,0.223 0.5,0.5 0,0.277 -0.223,0.5 -0.5,0.5 H 5.5 C 5.223,25 5,24.777 5,24.5 5,24.223 5.223,24 5.5,24 Z m 0,3 c 0.277,0 0.5,0.223 0.5,0.5 0,0.277 -0.223,0.5 -0.5,0.5 h -12 C 14.223,28 14,27.777 14,27.5 14,27.223 14.223,27 14.5,27 Z"
     id="path4"
     inkscape:connector-curvature="0"
     style="fill:#e9e9e9;fill-opacity:0.99215698" />
</svg>
